X: 24786
T: Maggie Brown's Favourite
R: jig
M: 6/8
K: Gmajor
|:g|dBG GAB|EFE EFG|AFD DEF|GDB, G,2 g|
dBG GAB|cBc EFG|AFD DEF|1 G3 G2:|2 G3 g2a||
|:bgb afd|efg gfe|dBg dBG|AFD D ga|
bgb afd|efg gfe|f/g/af ge^c|ded de=f|
ece dBd|cgc BGB|A^ce dBG|F/G/AF DEF|
GAB EFG|AB^c def|gdB cAF|1 GAG Gga:|2 GAG G2||

